X: 1
P: Mr. Gordon of Hallhead's Strathspey
R: strathspey
C: William Marshall
C: from Elke Baker/Boston Branch 50th collection
C: Arr. T. Traub 5-30-2004
M: 4/4
L: 1/8
K: G
|: B|"G"G>DB,>D G/F/E/D/ B,>D|"G"G<G,B<D "D"F<AA>B|"G"G>DB,>D "Em"G/F/E/F/ Gg|"G"d>B "D"c/B/A/G/ "G"D<G G :|
"G"g/f/g/a/ g2 "Em"g/f/g/a/ g2|"C"e/f/g/a/ g/f/e/d/ "D"e<aa>f|"G"g>b g<d "C"eg"G"dB|"C"ce"D"Ad "G"B<GG>d|
"G"g/f/g/a/ g z "Em"g/f/g/a/ g z|"C"g/a/b/a/ g/f/e/d/ "D"e<a ag/f/|"G"gG|"C"c>A "D"c/B/A/G/ "G"D<G G |]
